!!!OTL: Napoleons Schicksal (134), S. 303f
!!!id: T0303
**kern
*clefG2
*k[b-]
*F:
{8f
8g
=1
4a
8a
8cc
4cc
8b-
8a
=2
8a
8g
4g}
4r
=3
{8g
8a
=4
4b-
8b-
8dd
4dd
8cc
8b-
=5
2cc}
4r
=6
{4f
=7
4dd
8dd
8ee
4ff
8ee
8dd
=8
8dd
8cc
4cc}
4r
=9
{8ff
8cc
=10
4cc
8a
8cc
4cc
8b-
8b-
=11
2a}
4r
=12
{4f
=13
4dd
8dd
8ee
4ff
8ee
8dd
=14
8dd
8cc
4cc}
4r
=15
{8ff
8cc
=16
4cc
8a
8cc
4cc
8b-
8b-
=17
2a}
4r
==
*-
!!!minrhy: 8
!!!meters: 4/4 ]  ZZ[6
!!!cut: Napoleons Schicksal (134), S. 303f
!!!reg: Luxemburg
!!!trd: Singendes Volk, Esch-Alzette 1937, posth.
!!!rhy1: XX  X_XXX_XX  XXX_0_
!!!rhy2: XX  X_XXX_XX  X__0_
!!!key: T0303  08  F 4/4 ]  ZZ[6
!!!mod: HEPTATONIK IONISCH]  AMBITUS[8
!!!kad: 255353
!!!akz: 353_465_6+16_553_6+16_553_
!!!fot: 'a__b__as'c__as'c__
!!!for: 'a__aw_av_aw_av_aw_
!!!fok: '^a_/__^a_\__^a_\__
!! PHRAS[AUFTAKTIG]
!!!fkt: historische, Kriegs- und Soldatenlieder
!!!bem1: Junglinster, fff Mutter des Autors vor 1900;
!!!bem2: StraPen, fff Witry, 13.12.1932
!! THILL, Mathias:
!! PR[22] 2K[6] 2G[12] 3K[4] 3G[2] 4A[5] 4Ü[0] 5A[2] 6K[0] 6G[2]
!! 7K[0] 7G[0] 8A[0] MEHR[0] SI[33] ABS[85] SR[18] SP[15]
!! ST[18] 2k[9] 2g[29] 3k[0] 3g[0] 4d[4] 4ü[0] 5d[0] 6k[2] 6g[0]
!! 7k[0] 7g[0] 8d[0] mehr[0] si[45] dm[-12] sr[39] sp[6]
!! 1F[4] 2F[71] 3F[3] 4F[13] LF[0] 2P[2] 3P[6] 4P[0] TRI[0] DF[6] AB[94]
!! TF[0] U3K[0] U3[0] U4[0] U4Ü[1] U5[17] U6K[0] U6[14] U7K[0] U7[12]
!! N1[17] N2K[0] N2[21] N3K[0] N3[12] N4[3] N4Ü[0] N5[2] N6K[0] N6[0]
!!!n7k: 0] N7[0] O1[0] O2K[0] O2[0] O3K[0] O3[0] HÖ[0
